!!!Genre:	Zhok
!!!Mode:	Altered Dorian
!!!Listening/dance:	dance
!!!One_Mode:	no
**kern
*I"P1
*clefG2
*k[b-]
*g:dor
*M3/8
*>A
=1
4g
16dLL
16gJJ
=2
4b-
16gLL
16b-JJ
=3
4dd
8dd
=4
8cc#XL
8b-J
(16aLL
16gJJ)
=5
4dd
8dd
=6
8cc#XL
8b-J
16aLL
16gJJ
=7
(16.cc#XLL
32eeJJk)
4dd
=8
4.gg
=9:|!
8cc#XL
8b-J
16aLL
(8qcc#/
16b-JJ)
=10
8gL
8g
8gJ
=11
4g
8r
==12
*>B
8ffL
8ff
8ffJ
=13
4ee
8dd
=14
8cc#XL
8ddJ
24ffLL
24ee
24ddJJ
=15
8cc#XL
8b-J
16aLL
16gJJ
=16
8ffL
8ff
8ffJ
=17
4ee
8dd
=18
[4.gg
=19
8gg]
8r
8r
=20
8.ggL
16aaJk
16ffLL
16ggJJ
=21
8.eeL
16ffJk
16ddLL
16eeJJ
=22
8cc#XL
8ddJ
24ffLL
24ee
24ddJJ
=23
8cc#XL
8b-J
16aLL
16gJJ
=24
4dd
8dd
=25
8cc#XL
8b-J
16aLL
(8qcc#/
16b-JJ)
=26
4.g
=27
8g
8r
8r
=28
*>C
8.ggL
16ddJk
16ggLL
16ddJJ
=29
8.ggL
16ddJk
16ggLL
16ddJJ
=30
8ggL
8ffJ
16ee
(8qgg/
16ffJJ)
=31
4dd
8r
*>bM
*d:dor
=32
8eeL
8ffJ
16gg#XLL
16aaJJ
=33
8gg#XL
8ffJ
16ee
(8qgg#/
16ffJJ)
=34
[4.dd
=35
4dd]
8r
*>eM
*g:dor
=36
8.ggL
16ddJk
24bb-LL
24aa
24ggJJ
=37
8ggL
8ffJ
16ee
(8qgg/
16ffJJ)
=38
4dd
8r
=39
8cc#XL
8ddJ
24ffLL
24ee
24ddJJ
=40
8cc#XL
8b-J
16aLL
(8qcc#/
16b-JJ)
=41
4g
8r
==
*-
